X:1
T:Duci Cruento Martyrum, LM
T:Duci Cruento Martyrum, LM
T:Theodore Edward Aylward, 1869
T:Public Domain Courtesy of the Cyber Hymnal™
C:Theodore Edward Aylward, 1869
Z:Public Domain
Z:Courtesy of the Cyber Hymnal™
%%score ( 1 2 ) ( 3 4 )
L:1/8
Q:1/4=113
M:4/4
K:E
V:1 treble 
V:2 treble 
V:3 bass 
V:4 bass 
V:1
 [B,E]2 [B,G]2 [B,B]2 | [EB]2 [EA]2 [EG]2 [DF]2 x2 | E2 [DF]2 [EG]2 [F^A]2 | %3
 [FB]2 [Fd]2 [Fd]2 [Ec]2 | !fermata![DB]2 [EB]2 [Ec]2 [Ee]2 | [EA]2 [DB]2 [EG]2 [EA]2 | %6
 [DF]2 [EB]2 (EF) [CE]2 | (CD) [CE]2 [CE]2 [B,D]2 | [B,E]4 |] %9
V:2
 x6 | x10 | E2 x6 | x8 | x8 | x8 | x4 C2 x2 | A,2 x6 | x4 |] %9
V:3
 [E,G,]2 [E,G,]2 [D,F,]2 | [C,E,]2 [C,E,]2 B,2 z x3 | [G,,B,]2 [B,,B,]2 [E,B,]2 [E,C]2 | %3
 [D,B,]2 [B,,B,]2 [C,G,]2 [F,^A,]2 | !fermata![B,,B,]2 [G,B,]2 A,2 [G,B,]2 | %5
 [F,C]2 [B,,B,]2 [E,B,]2 [A,,C]2 | [B,,B,]2 [G,B,]2 A,2 (B,G,) | F,2 (G,E,) (A,G,) [B,,F,]2 | %8
 [E,G,]4 |] %9
V:4
 x6 | x4 B,,3 (B,2 A,,) | x8 | x8 | x4 A,2 x2 | x8 | x4 A,2 E,2 | F,2 C,2 A,,2 x2 | x4 |] %9

